X: 34424
T: Richie's
R: reel
M: 4/4
K: Amajor
eaec d2ed|cA (3Bcd efga|beef efga|bgec d2cd|
eaec d2ed|cA (3Bcd efga|gbef ge (3fga|1 gedB A4:|2 gefg a4||
gegf efga|~b3g ageg|~b3g agec|defd ~B3c|
dcde fe (3fga|~b3g ageg|~b3g ag e2|fdec defa:|

